X:1945
L:1/8
M:6/8
K:Amin
 g/e/ | dcA GEG | GEG G2 A | Bc/d/e ede | cAA A2 g/e/ | dcA GEG | GEG G2 A | Bc/d/e ede | cAA A2 || 
 ^f | g3 ged | cAB c2 d | eaa age | ged deg | age ^fed | cAB c2 d | ede ged | cAA A2 ||

